X: 116
T:Flower of Sweet Strabane, The
M:3/4
Z:added by Alf warnock alf0@rogers.com - www.alfwarnock.info/alfs
L:1/4
K:D
C/2E/2|"Bm"F2 F|F E F|"A"A2 A|A,2 B,|C E F|"Bm"B,2 A,|
B,3-|B,2 C/2C/2|B,2 B,|D2 A|B2 B|F2 c|B2 A|
F E F|"A"A3 -|A2 C/C/|"Bm"B,2C|E2 F|B2B|A Bc|
B2 A|F E F|"A"A3 -|A F A|"Bm"B2 A|F E F|
"A"A3|A,2 B,|C E F|"Bm"B,2 A,|B,3-|B,2|]

